X: 1
T: Burning Heather, The
M: 6/8
L: 1/8
R: jig
K: Bmin
B3 BAF|FEA EFE|~D3 AFA|dfe d2c|
cdB BAF|FEA EFE|DEF ABd|1cBA B2^A:|2cBA B2z||
b3 baf|efa f2e|dBA Bcd|cBA F2E|
FBF cFd|f2d efg|fBe dAc|dB^A B3:|
